src/lib/packages/icons/src/assets/line/user-check-alt.svg

<svg width="24" height="24" viewBox="0 0 24 24" fill="none" xmlns="http://www.w3.org/2000/svg">
<path d="M17.667 12.417C17.475 12.417 17.283 12.344 17.137 12.197L15.47 10.53C15.177 10.238 15.177 9.76199 15.47 9.46899C15.763 9.17599 16.238 9.17599 16.531 9.46899L17.668 10.605L20.4709 7.802C20.7639 7.509 21.239 7.509 21.532 7.802C21.825 8.095 21.825 8.57004 21.532 8.86304L18.199 12.196C18.051 12.343 17.859 12.417 17.667 12.417ZM14.259 6.5C14.259 4.157 12.353 2.25 10.009 2.25C7.66503 2.25 5.75903 4.157 5.75903 6.5C5.75903 8.843 7.66503 10.75 10.009 10.75C12.353 10.75 14.259 8.843 14.259 6.5ZM12.759 6.5C12.759 8.017 11.526 9.25 10.009 9.25C8.49203 9.25 7.25903 8.017 7.25903 6.5C7.25903 4.983 8.49203 3.75 10.009 3.75C11.526 3.75 12.759 4.983 12.759 6.5ZM17.75 21V18.019C17.75 15.358 16.244 12.25 12 12.25H8C3.756 12.25 2.25 15.357 2.25 18.019V21C2.25 21.414 2.586 21.75 3 21.75C3.414 21.75 3.75 21.414 3.75 21V18.019C3.75 17.018 4.057 13.75 8 13.75H12C15.943 13.75 16.25 17.017 16.25 18.019V21C16.25 21.414 16.586 21.75 17 21.75C17.414 21.75 17.75 21.414 17.75 21Z" fill="currentColor"/>
</svg>

<svg xmlns="http://www.w3.org/2000/svg" width="24" height="24" fill="none"><path fill="currentColor" d="M17.667 12.417a.744.744 0 0 1-.53-.22L15.47 10.53a.75.75 0 1 1 1.061-1.061l1.137 1.136 2.803-2.803a.75.75 0 0 1 1.061 1.061l-3.333 3.333a.753.753 0 0 1-.532.221ZM14.259 6.5a4.255 4.255 0 0 0-4.25-4.25 4.255 4.255 0 0 0-4.25 4.25 4.255 4.255 0 0 0 4.25 4.25 4.255 4.255 0 0 0 4.25-4.25Zm-1.5 0a2.752 2.752 0 0 1-2.75 2.75 2.752 2.752 0 0 1-2.75-2.75 2.752 2.752 0 0 1 2.75-2.75 2.752 2.752 0 0 1 2.75 2.75ZM17.75 21v-2.981c0-2.661-1.506-5.769-5.75-5.769H8c-4.244 0-5.75 3.107-5.75 5.769V21a.75.75 0 0 0 1.5 0v-2.981c0-1.001.307-4.269 4.25-4.269h4c3.943 0 4.25 3.267 4.25 4.269V21a.75.75 0 0 0 1.5 0Z"/></svg>
